; G-Code generated by Simplify3D(R) Version 4.0.1
; Feb 8, 2023 at 11:41:24 AM
; Settings Summary
;   processName,Process1
;   applyToModels,Thin_Film
;   profileName,CR-20 Pro Printer Top Printing Plot (modified)
;   profileVersion,2022-12-05 15:30:11
;   baseProfile,Default
;   printMaterial,ABS
;   printQuality,High
;   printExtruders,
;   extruderName,Extruder 1
;   extruderToolheadNumber,0
;   extruderDiameter,0.4
;   extruderAutoWidth,1
;   extruderWidth,0.48
;   extrusionMultiplier,1
;   extruderUseRetract,1
;   extruderRetractionDistance,4
;   extruderExtraRestartDistance,-0.3
;   extruderRetractionZLift,0.2
;   extruderRetractionSpeed,2000
;   extruderUseCoasting,1
;   extruderCoastingDistance,1
;   extruderUseWipe,1
;   extruderWipeDistance,2.6
;   primaryExtruder,0
;   layerHeight,0.2
;   topSolidLayers,1
;   bottomSolidLayers,1
;   perimeterOutlines,3
;   printPerimetersInsideOut,1
;   startPointOption,2
;   startPointOriginX,0
;   startPointOriginY,0
;   sequentialIslands,1
;   spiralVaseMode,0
;   firstLayerHeightPercentage,100
;   firstLayerWidthPercentage,100
;   firstLayerUnderspeed,0.4
;   useRaft,0
;   raftExtruder,0
;   raftTopLayers,2
;   raftBaseLayers,0
;   raftOffset,5
;   raftSeparationDistance,0.29
;   raftTopInfill,100
;   aboveRaftSpeedMultiplier,0.3
;   useSkirt,0
;   skirtExtruder,0
;   skirtLayers,2
;   skirtOutlines,3
;   skirtOffset,3
;   usePrimePillar,0
;   primePillarExtruder,999
;   primePillarWidth,12
;   primePillarLocation,7
;   primePillarSpeedMultiplier,1
;   useOozeShield,0
;   oozeShieldExtruder,999
;   oozeShieldOffset,2
;   oozeShieldOutlines,1
;   oozeShieldSidewallShape,1
;   oozeShieldSidewallAngle,30
;   oozeShieldSpeedMultiplier,1
;   infillExtruder,0
;   internalInfillPattern,Rectilinear
;   externalInfillPattern,Concentric
;   infillPercentage,10
;   outlineOverlapPercentage,20
;   infillExtrusionWidthPercentage,100
;   minInfillLength,5
;   infillLayerInterval,1
;   internalInfillAngles,0,90
;   overlapInternalInfillAngles,0
;   externalInfillAngles,0,90
;   generateSupport,1
;   supportExtruder,0
;   supportInfillPercentage,100
;   supportExtraInflation,1
;   supportBaseLayers,2
;   denseSupportExtruder,0
;   denseSupportLayers,0
;   denseSupportInfillPercentage,70
;   supportLayerInterval,1
;   supportHorizontalPartOffset,0.5
;   supportUpperSeparationLayers,3
;   supportLowerSeparationLayers,3
;   supportType,0
;   supportGridSpacing,1
;   maxOverhangAngle,60
;   supportAngles,0
;   temperatureName,Extruder 1,Heated Bed
;   temperatureNumber,0,0
;   temperatureSetpointCount,1,1
;   temperatureSetpointLayers,1,1
;   temperatureSetpointTemperatures,245,80
;   temperatureStabilizeAtStartup,1,1
;   temperatureHeatedBed,0,1
;   temperatureRelayBetweenLayers,0,0
;   temperatureRelayBetweenLoops,0,0
;   fanLayers,1,1
;   fanSpeeds,0,50
;   blipFanToFullPower,0
;   adjustSpeedForCooling,1
;   minSpeedLayerTime,15
;   minCoolingSpeedSlowdown,20
;   increaseFanForCooling,0
;   minFanLayerTime,45
;   maxCoolingFanSpeed,100
;   increaseFanForBridging,1
;   bridgingFanSpeed,100
;   use5D,1
;   relativeEdistances,0
;   allowEaxisZeroing,1
;   independentExtruderAxes,0
;   includeM10123,0
;   stickySupport,1
;   applyToolheadOffsets,0
;   gcodeXoffset,0
;   gcodeYoffset,0
;   gcodeZoffset,0
;   overrideMachineDefinition,1
;   machineTypeOverride,0
;   strokeXoverride,235
;   strokeYoverride,235
;   strokeZoverride,250
;   originOffsetXoverride,0
;   originOffsetYoverride,0
;   originOffsetZoverride,0
;   homeXdirOverride,-1
;   homeYdirOverride,-1
;   homeZdirOverride,-1
;   flipXoverride,1
;   flipYoverride,-1
;   flipZoverride,1
;   toolheadOffsets,0,0|0,0|0,0|0,0|0,0|0,0
;   overrideFirmwareConfiguration,1
;   firmwareTypeOverride,RepRap (Marlin/Repetier/Sprinter)
;   GPXconfigOverride,r2
;   baudRateOverride,250000
;   overridePrinterModels,0
;   printerModelsOverride
;   startingGcode,G28 ,G29,G92 E0 ; Reset Extruder,M400 ; wait for moves to finish,
;   layerChangeGcode,G92 E0 ; Reset Extruder
;   retractionGcode,
;   toolChangeGcode,
;   endingGcode,M400 ; wait for moves to finish,M107; turn fan off,G92 E0,G1 E-4 F300  ; retract the filament a bit,G92 E0,M104 S0,M140 S0,G28 X0 Y0 ;move X/Y to min endstops,,
;   exportFileFormat,gcode
;   celebration,0
;   celebrationSong,Star Wars
;   postProcessing,
;   defaultSpeed,3000
;   outlineUnderspeed,0.8
;   solidInfillUnderspeed,0.8
;   supportUnderspeed,0.8
;   rapidXYspeed,3000
;   rapidZspeed,3000
;   minBridgingArea,50
;   bridgingExtraInflation,0.5
;   bridgingExtrusionMultiplier,0.85
;   bridgingSpeedMultiplier,0.25
;   useFixedBridgingAngle,0
;   fixedBridgingAngle,0
;   applyBridgingToPerimeters,0
;   filamentDiameters,1.75|1.75|1.75|1.75|1.75|1.75
;   filamentPricesPerKg,22.99|46|46|46|46|46
;   filamentDensities,1.25|1.25|1.25|1.25|1.25|1.25
;   useMinPrintHeight,0
;   minPrintHeight,30
;   useMaxPrintHeight,0
;   maxPrintHeight,0
;   useDiaphragm,0
;   diaphragmLayerInterval,20
;   robustSlicing,1
;   mergeAllIntoSolid,0
;   onlyRetractWhenCrossingOutline,1
;   retractBetweenLayers,0
;   useRetractionMinTravel,0
;   retractionMinTravel,3
;   retractWhileWiping,1
;   onlyWipeOutlines,0
;   avoidCrossingOutline,1
;   maxMovementDetourFactor,5
;   toolChangeRetractionDistance,12
;   toolChangeExtraRestartDistance,-0.5
;   toolChangeRetractionSpeed,400
;   externalThinWallType,0
;   internalThinWallType,0
;   thinWallAllowedOverlapPercentage,5
;   singleExtrusionMinLength,1
;   singleExtrusionMinPrintingWidthPercentage,50
;   singleExtrusionMaxPrintingWidthPercentage,200
;   singleExtrusionEndpointExtension,0.2
;   horizontalSizeCompensation,0
G90
M82
M106 S0
M140 S80
M190 S80
M104 S245 T0
M109 S245 T0
G28
G29
G92 E0 ; Reset Extruder
M400 ; wait for moves to finish
G92 E0
G1 X0.0 Y0.0 Z0.0 E-4.0 F2000.0
G1 X0.0 Y0.0 Z0.4 E-4.0 F3000.0
; process Process1
; layer 1, Z = 0.200
G92 E0 ; Reset Extruder
T0
; tool H0.200 W0.480
; inner perimeter
G1 X0.704 Y0.704 Z0.4 F3000.0
G1 X1.408 Y1.408 Z0.4 F3000.0
G1 X2.112 Y2.112 Z0.4 F3000.0
G1 X2.816 Y2.816 Z0.4 F3000.0
G1 X3.52 Y3.52 Z0.4 F3000.0
G1 X4.224 Y4.224 Z0.4 F3000.0
G1 X4.928 Y4.928 Z0.4 F3000.0
G1 X5.632 Y5.632 Z0.4 F3000.0
G1 X6.336 Y6.336 Z0.4 F3000.0
G1 X7.04 Y7.04 Z0.4 F3000.0
G1 X7.744 Y7.744 Z0.4 F3000.0
G1 X8.448 Y8.448 Z0.4 F3000.0
G1 X9.152 Y9.152 Z0.4 F3000.0
G1 X9.856 Y9.856 Z0.4 F3000.0
G1 X10.56 Y10.56 Z0.4 F3000.0
G1 X11.263 Y11.263 Z0.4 F3000.0
G1 X11.967 Y11.967 Z0.4 F3000.0
G1 X12.671 Y12.671 Z0.4 F3000.0
G1 X13.375 Y13.375 Z0.4 F3000.0
G1 X14.079 Y14.079 Z0.4 F3000.0
G1 X14.783 Y14.783 Z0.4 F3000.0
G1 X15.487 Y15.487 Z0.4 F3000.0
G1 X16.191 Y16.191 Z0.4 F3000.0
G1 X16.895 Y16.895 Z0.4 F3000.0
G1 X17.599 Y17.599 Z0.4 F3000.0
G1 X18.303 Y18.303 Z0.4 F3000.0
G1 X19.007 Y19.007 Z0.4 F3000.0
G1 X19.711 Y19.711 Z0.4 F3000.0
G1 X20.415 Y20.415 Z0.4 F3000.0
G1 X21.119 Y21.119 Z0.4 F3000.0
G1 X21.823 Y21.823 Z0.4 F3000.0
G1 X22.527 Y22.527 Z0.4 F3000.0
G1 X23.231 Y23.231 Z0.4 F3000.0
G1 X23.935 Y23.935 Z0.4 F3000.0
G1 X24.639 Y24.639 Z0.4 F3000.0
G1 X25.343 Y25.343 Z0.4 F3000.0
G1 X26.047 Y26.047 Z0.4 F3000.0
G1 X26.751 Y26.751 Z0.4 F3000.0
G1 X27.455 Y27.455 Z0.4 F3000.0
G1 X28.159 Y28.159 Z0.4 F3000.0
G1 X28.863 Y28.863 Z0.4 F3000.0
G1 X29.567 Y29.567 Z0.4 F3000.0
G1 X30.271 Y30.271 Z0.4 F3000.0
G1 X30.975 Y30.975 Z0.4 F3000.0
G1 X31.679 Y31.679 Z0.4 F3000.0
G1 X32.383 Y32.383 Z0.4 F3000.0
G1 X33.087 Y33.087 Z0.4 F3000.0
G1 X33.79 Y33.79 Z0.4 F3000.0
G1 X34.494 Y34.494 Z0.4 F3000.0
G1 X35.198 Y35.198 Z0.4 F3000.0
G1 X35.902 Y35.902 Z0.4 F3000.0
G1 X36.606 Y36.606 Z0.4 F3000.0
G1 X37.31 Y37.31 Z0.4 F3000.0
G1 X38.014 Y38.014 Z0.4 F3000.0
G1 X38.718 Y38.718 Z0.4 F3000.0
G1 X39.422 Y39.422 Z0.4 F3000.0
G1 X40.126 Y40.126 Z0.4 F3000.0
G1 X40.83 Y40.83 Z0.4 F3000.0
G1 X41.534 Y41.534 Z0.4 F3000.0
G1 X42.238 Y42.238 Z0.4 F3000.0
G1 X42.942 Y42.942 Z0.4 F3000.0
G1 X43.646 Y43.646 Z0.4 F3000.0
G1 X44.35 Y44.35 Z0.4 F3000.0
G1 X45.054 Y45.054 Z0.4 F3000.0
G1 X45.758 Y45.758 Z0.4 F3000.0
G1 X46.462 Y46.462 Z0.4 F3000.0
G1 X47.166 Y47.166 Z0.4 F3000.0
G1 X47.87 Y47.87 Z0.4 F3000.0
G1 X48.574 Y48.574 Z0.4 F3000.0
G1 X49.278 Y49.278 Z0.4 F3000.0
G1 X49.982 Y49.982 Z0.4 F3000.0
G1 X50.686 Y50.686 Z0.4 F3000.0
G1 X51.39 Y51.39 Z0.4 F3000.0
G1 X52.094 Y52.094 Z0.4 F3000.0
G1 X52.798 Y52.798 Z0.4 F3000.0
G1 X53.502 Y53.502 Z0.4 F3000.0
G1 X54.206 Y54.206 Z0.4 F3000.0
G1 X54.91 Y54.91 Z0.4 F3000.0
G1 X55.613 Y55.613 Z0.4 F3000.0
G1 X56.317 Y56.317 Z0.4 F3000.0
G1 X57.021 Y57.021 Z0.4 F3000.0
G1 X57.725 Y57.725 Z0.4 F3000.0
G1 X58.429 Y58.429 Z0.4 F3000.0
G1 X59.133 Y59.133 Z0.4 F3000.0
G1 X59.837 Y59.837 Z0.4 F3000.0
G1 X60.541 Y60.541 Z0.4 F3000.0
G1 X61.245 Y61.245 Z0.4 F3000.0
G1 X61.949 Y61.949 Z0.4 F3000.0
G1 X62.653 Y62.653 Z0.4 F3000.0
G1 X63.357 Y63.357 Z0.4 F3000.0
G1 X64.061 Y64.061 Z0.4 F3000.0
G1 X64.765 Y64.765 Z0.4 F3000.0
G1 X65.469 Y65.469 Z0.4 F3000.0
G1 X66.173 Y66.173 Z0.4 F3000.0
G1 X66.877 Y66.877 Z0.4 F3000.0
G1 X67.581 Y67.581 Z0.4 F3000.0
G1 X68.285 Y68.285 Z0.4 F3000.0
G1 X68.989 Y68.989 Z0.4 F3000.0
G1 X69.693 Y69.693 Z0.4 F3000.0
G1 X70.397 Y70.397 Z0.4 F3000.0
G1 X71.101 Y71.101 Z0.4 F3000.0
G1 X71.805 Y71.805 Z0.4 F3000.0
G1 X72.509 Y72.509 Z0.4 F3000.0
G1 X73.213 Y73.213 Z0.4 F3000.0
G1 X73.917 Y73.917 Z0.4 F3000.0
G1 X74.621 Y74.621 Z0.4 F3000.0
G1 X75.325 Y75.325 Z0.4 F3000.0
G1 X76.029 Y76.029 Z0.4 F3000.0
G1 X76.733 Y76.733 Z0.4 F3000.0
G1 X77.437 Y77.437 Z0.4 F3000.0
G1 X78.14 Y78.14 Z0.4 F3000.0
G1 X78.844 Y78.844 Z0.4 F3000.0
G1 X79.548 Y79.548 Z0.4 F3000.0
G1 X80.252 Y80.252 Z0.4 F3000.0
G1 X80.956 Y80.956 Z0.4 F3000.0
G1 X81.66 Y81.66 Z0.4 F3000.0
G1 X82.364 Y82.364 Z0.4 F3000.0
G1 X83.068 Y83.068 Z0.4 F3000.0
G1 X83.772 Y83.772 Z0.4 F3000.0
G1 X84.476 Y84.476 Z0.4 F3000.0
G1 X85.18 Y85.18 Z0.4 F3000.0
G1 X85.884 Y85.884 Z0.4 F3000.0
G1 X86.588 Y86.588 Z0.4 F3000.0
G1 X87.292 Y87.292 Z0.4 F3000.0
G1 X87.996 Y87.996 Z0.4 F3000.0
G1 X88.7 Y88.7 Z0.4 F3000.0
G1 X88.7 Y88.7 Z0.2 F3000.0
G1 X88.7 Y88.7 Z0.2 E-0.3 F600.0
G92 E0
G1 X89.693 Y88.7 Z0.2 E0.04 F1080.0
G1 X90.686 Y88.7 Z0.2 E0.079 F1080.0
G1 X91.679 Y88.7 Z0.2 E0.119 F1080.0
G1 X92.672 Y88.7 Z0.2 E0.159 F1080.0
G1 X93.666 Y88.7 Z0.2 E0.198 F1080.0
G1 X94.659 Y88.7 Z0.2 E0.238 F1080.0
G1 X95.652 Y88.7 Z0.2 E0.277 F1080.0
G1 X96.645 Y88.7 Z0.2 E0.317 F1080.0
G1 X97.638 Y88.7 Z0.2 E0.357 F1080.0
G1 X98.631 Y88.7 Z0.2 E0.396 F1080.0
G1 X99.624 Y88.7 Z0.2 E0.436 F1080.0
G1 X100.617 Y88.7 Z0.2 E0.476 F1080.0
G1 X101.61 Y88.7 Z0.2 E0.515 F1080.0
G1 X102.603 Y88.7 Z0.2 E0.555 F1080.0
G1 X103.597 Y88.7 Z0.2 E0.595 F1080.0
G1 X104.59 Y88.7 Z0.2 E0.634 F1080.0
G1 X105.583 Y88.7 Z0.2 E0.674 F1080.0
G1 X106.576 Y88.7 Z0.2 E0.713 F1080.0
G1 X107.569 Y88.7 Z0.2 E0.753 F1080.0
G1 X108.562 Y88.7 Z0.2 E0.793 F1080.0
G1 X109.555 Y88.7 Z0.2 E0.832 F1080.0
G1 X110.548 Y88.7 Z0.2 E0.872 F1080.0
G1 X111.541 Y88.7 Z0.2 E0.912 F1080.0
G1 X112.534 Y88.7 Z0.2 E0.951 F1080.0
G1 X113.528 Y88.7 Z0.2 E0.991 F1080.0
G1 X114.521 Y88.7 Z0.2 E1.031 F1080.0
G1 X115.514 Y88.7 Z0.2 E1.07 F1080.0
G1 X116.507 Y88.7 Z0.2 E1.11 F1080.0
G1 X117.5 Y88.7 Z0.2 E1.149 F1080.0
G1 X118.493 Y88.7 Z0.2 E1.189 F1080.0
G1 X119.486 Y88.7 Z0.2 E1.229 F1080.0
G1 X120.479 Y88.7 Z0.2 E1.268 F1080.0
G1 X121.472 Y88.7 Z0.2 E1.308 F1080.0
G1 X122.466 Y88.7 Z0.2 E1.348 F1080.0
G1 X123.459 Y88.7 Z0.2 E1.387 F1080.0
G1 X124.452 Y88.7 Z0.2 E1.427 F1080.0
G1 X125.445 Y88.7 Z0.2 E1.467 F1080.0
G1 X126.438 Y88.7 Z0.2 E1.506 F1080.0
G1 X127.431 Y88.7 Z0.2 E1.546 F1080.0
G1 X128.424 Y88.7 Z0.2 E1.585 F1080.0
G1 X129.417 Y88.7 Z0.2 E1.625 F1080.0
G1 X130.41 Y88.7 Z0.2 E1.665 F1080.0
G1 X131.403 Y88.7 Z0.2 E1.704 F1080.0
G1 X132.397 Y88.7 Z0.2 E1.744 F1080.0
G1 X133.39 Y88.7 Z0.2 E1.784 F1080.0
G1 X134.383 Y88.7 Z0.2 E1.823 F1080.0
G1 X135.376 Y88.7 Z0.2 E1.863 F1080.0
G1 X136.369 Y88.7 Z0.2 E1.903 F1080.0
G1 X137.362 Y88.7 Z0.2 E1.942 F1080.0
G1 X138.355 Y88.7 Z0.2 E1.982 F1080.0
G1 X139.348 Y88.7 Z0.2 E2.021 F1080.0
G1 X140.341 Y88.7 Z0.2 E2.061 F1080.0
G1 X141.334 Y88.7 Z0.2 E2.101 F1080.0
G1 X142.328 Y88.7 Z0.2 E2.14 F1080.0
G1 X143.321 Y88.7 Z0.2 E2.18 F1080.0
G1 X144.314 Y88.7 Z0.2 E2.22 F1080.0
G1 X145.307 Y88.7 Z0.2 E2.259 F1080.0
G1 X146.3 Y88.7 Z0.2 E2.2989 F1080.0
G1 X146.3 Y89.693 Z0.2 E2.339 F1080.0
G1 X146.3 Y90.686 Z0.2 E2.378 F1080.0
G1 X146.3 Y91.679 Z0.2 E2.418 F1080.0
G1 X146.3 Y92.672 Z0.2 E2.457 F1080.0
G1 X146.3 Y93.666 Z0.2 E2.497 F1080.0
G1 X146.3 Y94.659 Z0.2 E2.537 F1080.0
G1 X146.3 Y95.652 Z0.2 E2.576 F1080.0
G1 X146.3 Y96.645 Z0.2 E2.616 F1080.0
G1 X146.3 Y97.638 Z0.2 E2.656 F1080.0
G1 X146.3 Y98.631 Z0.2 E2.695 F1080.0
G1 X146.3 Y99.624 Z0.2 E2.735 F1080.0
G1 X146.3 Y100.617 Z0.2 E2.775 F1080.0
G1 X146.3 Y101.61 Z0.2 E2.814 F1080.0
G1 X146.3 Y102.603 Z0.2 E2.854 F1080.0
G1 X146.3 Y103.597 Z0.2 E2.893 F1080.0
G1 X146.3 Y104.59 Z0.2 E2.933 F1080.0
G1 X146.3 Y105.583 Z0.2 E2.973 F1080.0
G1 X146.3 Y106.576 Z0.2 E3.012 F1080.0
G1 X146.3 Y107.569 Z0.2 E3.052 F1080.0
G1 X146.3 Y108.562 Z0.2 E3.092 F1080.0
G1 X146.3 Y109.555 Z0.2 E3.131 F1080.0
G1 X146.3 Y110.548 Z0.2 E3.171 F1080.0
G1 X146.3 Y111.541 Z0.2 E3.211 F1080.0
G1 X146.3 Y112.534 Z0.2 E3.25 F1080.0
G1 X146.3 Y113.528 Z0.2 E3.29 F1080.0
G1 X146.3 Y114.521 Z0.2 E3.329 F1080.0
G1 X146.3 Y115.514 Z0.2 E3.369 F1080.0
G1 X146.3 Y116.507 Z0.2 E3.409 F1080.0
G1 X146.3 Y117.5 Z0.2 E3.448 F1080.0
G1 X146.3 Y118.493 Z0.2 E3.488 F1080.0
G1 X146.3 Y119.486 Z0.2 E3.528 F1080.0
G1 X146.3 Y120.479 Z0.2 E3.567 F1080.0
G1 X146.3 Y121.472 Z0.2 E3.607 F1080.0
G1 X146.3 Y122.466 Z0.2 E3.647 F1080.0
G1 X146.3 Y123.459 Z0.2 E3.686 F1080.0
G1 X146.3 Y124.452 Z0.2 E3.726 F1080.0
G1 X146.3 Y125.445 Z0.2 E3.766 F1080.0
G1 X146.3 Y126.438 Z0.2 E3.805 F1080.0
G1 X146.3 Y127.431 Z0.2 E3.845 F1080.0
G1 X146.3 Y128.424 Z0.2 E3.884 F1080.0
G1 X146.3 Y129.417 Z0.2 E3.924 F1080.0
G1 X146.3 Y130.41 Z0.2 E3.964 F1080.0
G1 X146.3 Y131.403 Z0.2 E4.003 F1080.0
G1 X146.3 Y132.397 Z0.2 E4.043 F1080.0
G1 X146.3 Y133.39 Z0.2 E4.083 F1080.0
G1 X146.3 Y134.383 Z0.2 E4.122 F1080.0
G1 X146.3 Y135.376 Z0.2 E4.162 F1080.0
G1 X146.3 Y136.369 Z0.2 E4.202 F1080.0
G1 X146.3 Y137.362 Z0.2 E4.241 F1080.0
G1 X146.3 Y138.355 Z0.2 E4.281 F1080.0
G1 X146.3 Y139.348 Z0.2 E4.32 F1080.0
G1 X146.3 Y140.341 Z0.2 E4.36 F1080.0
G1 X146.3 Y141.334 Z0.2 E4.4 F1080.0
G1 X146.3 Y142.328 Z0.2 E4.439 F1080.0
G1 X146.3 Y143.321 Z0.2 E4.479 F1080.0
G1 X146.3 Y144.314 Z0.2 E4.519 F1080.0
G1 X146.3 Y145.307 Z0.2 E4.558 F1080.0
G1 X146.3 Y146.3 Z0.2 E4.5979 F1080.0
G1 X145.307 Y146.3 Z0.2 E4.638 F1080.0
G1 X144.314 Y146.3 Z0.2 E4.677 F1080.0
G1 X143.321 Y146.3 Z0.2 E4.717 F1080.0
G1 X142.328 Y146.3 Z0.2 E4.756 F1080.0
G1 X141.334 Y146.3 Z0.2 E4.796 F1080.0
G1 X140.341 Y146.3 Z0.2 E4.836 F1080.0
G1 X139.348 Y146.3 Z0.2 E4.875 F1080.0
G1 X138.355 Y146.3 Z0.2 E4.915 F1080.0
G1 X137.362 Y146.3 Z0.2 E4.955 F1080.0
G1 X136.369 Y146.3 Z0.2 E4.994 F1080.0
G1 X135.376 Y146.3 Z0.2 E5.034 F1080.0
G1 X134.383 Y146.3 Z0.2 E5.074 F1080.0
G1 X133.39 Y146.3 Z0.2 E5.113 F1080.0
G1 X132.397 Y146.3 Z0.2 E5.153 F1080.0
G1 X131.403 Y146.3 Z0.2 E5.192 F1080.0
G1 X130.41 Y146.3 Z0.2 E5.232 F1080.0
G1 X129.417 Y146.3 Z0.2 E5.272 F1080.0
G1 X128.424 Y146.3 Z0.2 E5.311 F1080.0
G1 X127.431 Y146.3 Z0.2 E5.351 F1080.0
G1 X126.438 Y146.3 Z0.2 E5.391 F1080.0
G1 X125.445 Y146.3 Z0.2 E5.43 F1080.0
G1 X124.452 Y146.3 Z0.2 E5.47 F1080.0
G1 X123.459 Y146.3 Z0.2 E5.51 F1080.0
G1 X122.466 Y146.3 Z0.2 E5.549 F1080.0
G1 X121.472 Y146.3 Z0.2 E5.589 F1080.0
G1 X120.479 Y146.3 Z0.2 E5.628 F1080.0
G1 X119.486 Y146.3 Z0.2 E5.668 F1080.0
G1 X118.493 Y146.3 Z0.2 E5.708 F1080.0
G1 X117.5 Y146.3 Z0.2 E5.747 F1080.0
G1 X116.507 Y146.3 Z0.2 E5.787 F1080.0
G1 X115.514 Y146.3 Z0.2 E5.827 F1080.0
G1 X114.521 Y146.3 Z0.2 E5.866 F1080.0
G1 X113.528 Y146.3 Z0.2 E5.906 F1080.0
G1 X112.534 Y146.3 Z0.2 E5.946 F1080.0
G1 X111.541 Y146.3 Z0.2 E5.985 F1080.0
G1 X110.548 Y146.3 Z0.2 E6.025 F1080.0
G1 X109.555 Y146.3 Z0.2 E6.064 F1080.0
G1 X108.562 Y146.3 Z0.2 E6.104 F1080.0
G1 X107.569 Y146.3 Z0.2 E6.144 F1080.0
G1 X106.576 Y146.3 Z0.2 E6.183 F1080.0
