; G-Code generated by Simplify3D(R) Version 4.0.1
; Feb 8, 2023 at 11:42:36 AM
; Settings Summary
;   processName,Process1
;   applyToModels,Dome
;   profileName,CR-20 Pro Conformal Surface for plot
;   profileVersion,2022-05-31 10:50:38
;   baseProfile,Default
;   printMaterial,PVA
;   printQuality,High
;   printExtruders,
;   extruderName,Extruder 1
;   extruderToolheadNumber,0
;   extruderDiameter,0.4
;   extruderAutoWidth,1
;   extruderWidth,0.48
;   extrusionMultiplier,1
;   extruderUseRetract,0
;   extruderRetractionDistance,4
;   extruderExtraRestartDistance,-0.3
;   extruderRetractionZLift,0.2
;   extruderRetractionSpeed,2000
;   extruderUseCoasting,0
;   extruderCoastingDistance,1
;   extruderUseWipe,0
;   extruderWipeDistance,2.6
;   primaryExtruder,0
;   layerHeight,0.2
;   topSolidLayers,5
;   bottomSolidLayers,5
;   perimeterOutlines,5
;   printPerimetersInsideOut,1
;   startPointOption,2
;   startPointOriginX,0
;   startPointOriginY,0
;   sequentialIslands,1
;   spiralVaseMode,0
;   firstLayerHeightPercentage,100
;   firstLayerWidthPercentage,100
;   firstLayerUnderspeed,0.4
;   useRaft,0
;   raftExtruder,0
;   raftTopLayers,2
;   raftBaseLayers,0
;   raftOffset,5
;   raftSeparationDistance,0.29
;   raftTopInfill,100
;   aboveRaftSpeedMultiplier,0.3
;   useSkirt,0
;   skirtExtruder,0
;   skirtLayers,2
;   skirtOutlines,3
;   skirtOffset,3
;   usePrimePillar,0
;   primePillarExtruder,999
;   primePillarWidth,12
;   primePillarLocation,7
;   primePillarSpeedMultiplier,1
;   useOozeShield,0
;   oozeShieldExtruder,999
;   oozeShieldOffset,2
;   oozeShieldOutlines,1
;   oozeShieldSidewallShape,1
;   oozeShieldSidewallAngle,30
;   oozeShieldSpeedMultiplier,1
;   infillExtruder,0
;   internalInfillPattern,Rectilinear
;   externalInfillPattern,Concentric
;   infillPercentage,20
;   outlineOverlapPercentage,20
;   infillExtrusionWidthPercentage,100
;   minInfillLength,5
;   infillLayerInterval,1
;   internalInfillAngles,45,-45
;   overlapInternalInfillAngles,0
;   externalInfillAngles,45,-45
;   generateSupport,0
;   supportExtruder,0
;   supportInfillPercentage,20
;   supportExtraInflation,1.5
;   supportBaseLayers,2
;   denseSupportExtruder,0
;   denseSupportLayers,0
;   denseSupportInfillPercentage,70
;   supportLayerInterval,1
;   supportHorizontalPartOffset,0.5
;   supportUpperSeparationLayers,3
;   supportLowerSeparationLayers,3
;   supportType,0
;   supportGridSpacing,1
;   maxOverhangAngle,60
;   supportAngles,0
;   temperatureName,Extruder 1,Heated Bed
;   temperatureNumber,0,0
;   temperatureSetpointCount,1,1
;   temperatureSetpointLayers,1,1
;   temperatureSetpointTemperatures,195,80
;   temperatureStabilizeAtStartup,1,1
;   temperatureHeatedBed,0,1
;   temperatureRelayBetweenLayers,0,0
;   temperatureRelayBetweenLoops,0,0
;   fanLayers,1,2
;   fanSpeeds,0,100
;   blipFanToFullPower,0
;   adjustSpeedForCooling,1
;   minSpeedLayerTime,15
;   minCoolingSpeedSlowdown,20
;   increaseFanForCooling,0
;   minFanLayerTime,45
;   maxCoolingFanSpeed,100
;   increaseFanForBridging,1
;   bridgingFanSpeed,100
;   use5D,1
;   relativeEdistances,0
;   allowEaxisZeroing,1
;   independentExtruderAxes,0
;   includeM10123,0
;   stickySupport,1
;   applyToolheadOffsets,0
;   gcodeXoffset,0
;   gcodeYoffset,0
;   gcodeZoffset,0
;   overrideMachineDefinition,1
;   machineTypeOverride,0
;   strokeXoverride,235
;   strokeYoverride,235
;   strokeZoverride,250
;   originOffsetXoverride,0
;   originOffsetYoverride,0
;   originOffsetZoverride,0
;   homeXdirOverride,-1
;   homeYdirOverride,-1
;   homeZdirOverride,-1
;   flipXoverride,1
;   flipYoverride,-1
;   flipZoverride,1
;   toolheadOffsets,0,0|0,0|0,0|0,0|0,0|0,0
;   overrideFirmwareConfiguration,1
;   firmwareTypeOverride,RepRap (Marlin/Repetier/Sprinter)
;   GPXconfigOverride,r2
;   baudRateOverride,250000
;   overridePrinterModels,0
;   printerModelsOverride
;   startingGcode,
;   layerChangeGcode,
;   retractionGcode,
;   toolChangeGcode,
;   endingGcode,
;   exportFileFormat,gcode
;   celebration,0
;   celebrationSong,Star Wars
;   postProcessing,
;   defaultSpeed,3000
;   outlineUnderspeed,1
;   solidInfillUnderspeed,1
;   supportUnderspeed,1
;   rapidXYspeed,3000
;   rapidZspeed,3000
;   minBridgingArea,50
;   bridgingExtraInflation,0.5
;   bridgingExtrusionMultiplier,0.85
;   bridgingSpeedMultiplier,0.25
;   useFixedBridgingAngle,0
;   fixedBridgingAngle,0
;   applyBridgingToPerimeters,0
;   filamentDiameters,1.75|1.75|1.75|1.75|1.75|1.75
;   filamentPricesPerKg,22.99|46|46|46|46|46
;   filamentDensities,1.25|1.25|1.25|1.25|1.25|1.25
;   useMinPrintHeight,0
;   minPrintHeight,35
;   useMaxPrintHeight,0
;   maxPrintHeight,35
;   useDiaphragm,0
;   diaphragmLayerInterval,20
;   robustSlicing,1
;   mergeAllIntoSolid,0
;   onlyRetractWhenCrossingOutline,1
;   retractBetweenLayers,0
;   useRetractionMinTravel,0
;   retractionMinTravel,3
;   retractWhileWiping,1
;   onlyWipeOutlines,0
;   avoidCrossingOutline,1
;   maxMovementDetourFactor,5
;   toolChangeRetractionDistance,12
;   toolChangeExtraRestartDistance,-0.5
;   toolChangeRetractionSpeed,400
;   externalThinWallType,0
;   internalThinWallType,0
;   thinWallAllowedOverlapPercentage,5
;   singleExtrusionMinLength,1
;   singleExtrusionMinPrintingWidthPercentage,50
;   singleExtrusionMaxPrintingWidthPercentage,200
;   singleExtrusionEndpointExtension,0.2
;   horizontalSizeCompensation,0
G90
M82
M106 S0
M140 S80
M190 S80
M104 S195 T0
M109 S195 T0
G1 Z0.400 F3000
; process Process1
; layer 1, Z = 0.200
T0
; tool H0.200 W0.480
; inner perimeter
G1 X104.806 Y105.010 F3000
G1 Z0.200 F3000
G92 E0
G1 X105.244 Y104.581 E0.0245 F1200
G1 X105.696 Y104.167 E0.0489
G1 X106.161 Y103.769 E0.0734
G1 X106.640 Y103.387 E0.0978
G1 X107.132 Y103.021 E0.1223
G1 X107.636 Y102.673 E0.1467
G1 X108.152 Y102.343 E0.1712
G1 X108.679 Y102.030 E0.1956
G1 X109.217 Y101.736 E0.2201
G1 X109.764 Y101.460 E0.2446
G1 X110.320 Y101.204 E0.2690
G1 X110.885 Y100.966 E0.2935
G1 X111.458 Y100.749 E0.3179
G1 X112.038 Y100.551 E0.3424
G1 X112.624 Y100.373 E0.3668
G1 X113.216 Y100.215 E0.3913
G1 X113.814 Y100.078 E0.4157
G1 X114.415 Y99.962 E0.4402
G1 X115.018 Y99.866 E0.4646
G1 X115.706 Y99.783 E0.4922
G1 X116.237 Y99.737 E0.5135
G1 X116.850 Y99.704 E0.5380
G1 X117.461 Y99.693 E0.5624
G1 X118.152 Y99.704 E0.5900
G1 X118.763 Y99.737 E0.6144
G1 X119.294 Y99.783 E0.6357
G1 X119.982 Y99.866 E0.6633
G1 X120.585 Y99.962 E0.6877
G1 X121.186 Y100.078 E0.7121
G1 X121.784 Y100.215 E0.7366
G1 X122.376 Y100.373 E0.7610
G1 X122.962 Y100.551 E0.7855
G1 X123.542 Y100.749 E0.8100
G1 X124.115 Y100.966 E0.8344
G1 X124.680 Y101.204 E0.8589
G1 X125.236 Y101.460 E0.8833
G1 X125.783 Y101.736 E0.9078
G1 X126.321 Y102.030 E0.9322
G1 X126.848 Y102.343 E0.9567
G1 X127.364 Y102.673 E0.9812
G1 X127.868 Y103.021 E1.0056
G1 X128.359 Y103.387 E1.0300
G1 X128.839 Y103.769 E1.0545
G1 X129.305 Y104.167 E1.0790
G1 X129.756 Y104.581 E1.1034
G1 X130.193 Y105.010 E1.1279
G1 X130.615 Y105.454 E1.1523
G1 X131.022 Y105.913 E1.1768
G1 X131.413 Y106.385 E1.2012
G1 X131.787 Y106.870 E1.2257
G1 X132.144 Y107.368 E1.2501
G1 X132.484 Y107.878 E1.2746
G1 X132.806 Y108.399 E1.2991
G1 X133.110 Y108.931 E1.3235
G1 X133.396 Y109.473 E1.3480
G1 X133.661 Y110.022 E1.3723
G1 X133.940 Y110.657 E1.4000
G1 X134.138 Y111.152 E1.4213
G1 X134.346 Y111.727 E1.4457
G1 X134.557 Y112.385 E1.4733
G1 X134.723 Y112.973 E1.4977
G1 X134.869 Y113.570 E1.5222
G1 X134.978 Y114.091 E1.5434
G1 X135.098 Y114.774 E1.5711
G1 X135.181 Y115.379 E1.5955
G1 X135.243 Y115.988 E1.6199
G1 X135.285 Y116.600 E1.6444
G1 X135.305 Y117.212 E1.6688
G1 X135.305 Y117.825 E1.6933
G1 X135.283 Y118.437 E1.7177
G1 X135.240 Y119.049 E1.7422
G1 X135.177 Y119.658 E1.7667
G1 X135.092 Y120.264 E1.7911
G1 X134.986 Y120.868 E1.8156
G1 X134.860 Y121.468 E1.8400
G1 X134.713 Y122.063 E1.8645
G1 X134.546 Y122.652 E1.8889
G1 X134.359 Y123.235 E1.9134
G1 X134.152 Y123.812 E1.9378
G1 X133.925 Y124.381 E1.9623
G1 X133.678 Y124.942 E1.9867
G1 X133.413 Y125.494 E2.0112
G1 X133.128 Y126.037 E2.0357
G1 X132.825 Y126.570 E2.0601
G1 X132.504 Y127.091 E2.0846
G1 X132.165 Y127.602 E2.1090
G1 X131.809 Y128.100 E2.1335
G1 X131.436 Y128.586 E2.1579
G1 X131.046 Y129.059 E2.1824
G1 X130.640 Y129.518 E2.2068
G1 X130.219 Y129.963 E2.2313
G1 X129.785 Y130.392 E2.2556
G1 X129.273 Y130.860 E2.2833
G1 X128.869 Y131.206 E2.3046
G1 X128.391 Y131.589 E2.3290
G1 X127.836 Y132.001 E2.3566
G1 X127.333 Y132.347 E2.3810
G1 X126.814 Y132.677 E2.4055
G1 X126.356 Y132.949 E2.4268
G1 X125.748 Y133.282 E2.4544
G1 X125.202 Y133.556 E2.4788
G1 X124.646 Y133.811 E2.5032
G1 X124.081 Y134.047 E2.5277
G1 X123.507 Y134.264 E2.5522
G1 X122.927 Y134.461 E2.5766
G1 X122.340 Y134.637 E2.6011
G1 X121.748 Y134.794 E2.6255
G1 X121.150 Y134.930 E2.6500
G1 X120.549 Y135.045 E2.6744
G1 X119.943 Y135.139 E2.6989
G1 X119.335 Y135.213 E2.7233
G1 X118.724 Y135.266 E2.7478
G1 X118.113 Y135.297 E2.7722
G1 X117.500 Y135.308 E2.7967
G1 X116.887 Y135.297 E2.8212
G1 X116.276 Y135.266 E2.8456
G1 X115.665 Y135.213 E2.8701
G1 X115.057 Y135.139 E2.8945
G1 X114.451 Y135.045 E2.9190
G1 X113.850 Y134.930 E2.9434
G1 X113.252 Y134.794 E2.9679
G1 X112.660 Y134.637 E2.9923
G1 X112.073 Y134.461 E3.0168
G1 X111.493 Y134.264 E3.0412
G1 X110.919 Y134.047 E3.0657
G1 X110.354 Y133.811 E3.0902
G1 X109.798 Y133.556 E3.1146
G1 X109.249 Y133.281 E3.1391
G1 X108.714 Y132.989 E3.1634
G1 X108.118 Y132.635 E3.1911
G1 X107.669 Y132.348 E3.2124
G1 X107.164 Y132.001 E3.2368
G1 X106.609 Y131.589 E3.2644
G1 X106.133 Y131.207 E3.2887
G1 X105.667 Y130.807 E3.3133
G1 X105.274 Y130.447 E3.3345
G1 X104.779 Y129.961 E3.3622
G1 X104.360 Y129.518 E3.3866
G1 X103.954 Y129.059 E3.4110
G1 X103.564 Y128.586 E3.4355
G1 X103.191 Y128.101 E3.4599
G1 X102.835 Y127.602 E3.4844
G1 X102.496 Y127.091 E3.5088
G1 X102.175 Y126.570 E3.5333
G1 X101.872 Y126.037 E3.5577
G1 X101.588 Y125.494 E3.5822
G1 X101.322 Y124.942 E3.6067
G1 X101.075 Y124.381 E3.6311
G1 X100.848 Y123.812 E3.6556
G1 X100.641 Y123.236 E3.6800
G1 X100.454 Y122.652 E3.7045
G1 X100.287 Y122.063 E3.7289
G1 X100.140 Y121.468 E3.7534
G1 X100.014 Y120.868 E3.7778
G1 X99.908 Y120.265 E3.8023
G1 X99.823 Y119.658 E3.8268
G1 X99.760 Y119.049 E3.8512
G1 X99.717 Y118.437 E3.8757
G1 X99.695 Y117.825 E3.9001
G1 X99.695 Y117.212 E3.9246
G1 X99.715 Y116.600 E3.9490
G1 X99.757 Y115.988 E3.9735
G1 X99.819 Y115.379 E3.9979
G1 X99.903 Y114.772 E4.0224
G1 X100.006 Y114.170 E4.0467
G1 X100.149 Y113.492 E4.0744
G1 X100.277 Y112.975 E4.0957
G1 X100.443 Y112.386 E4.1201
G1 X100.654 Y111.727 E4.1477
G1 X100.862 Y111.153 E4.1721
G1 X101.091 Y110.583 E4.1966
G1 X101.313 Y110.076 E4.2187
G1 X101.332 Y110.036 E4.2204
G1 X101.604 Y109.473 E4.2454
G1 X101.890 Y108.931 E4.2699
G1 X102.194 Y108.399 E4.2943
G1 X102.516 Y107.878 E4.3188
G1 X102.856 Y107.368 E4.3433
G1 X103.213 Y106.870 E4.3677
G1 X103.587 Y106.385 E4.3922
G1 X103.978 Y105.913 E4.4166
G1 X104.384 Y105.454 E4.4411
G1 X104.806 Y105.010 E4.4655
G1 X104.464 Y104.673 F3000
G92 E0
G1 X104.913 Y104.233 E0.0251 F1200
G1 X105.377 Y103.807 E0.0502
G1 X105.855 Y103.399 E0.0753
G1 X106.347 Y103.006 E0.1005
G1 X106.853 Y102.631 E0.1256
G1 X107.370 Y102.274 E0.1507
G1 X107.900 Y101.934 E0.1758
G1 X108.442 Y101.613 E0.2009
G1 X108.993 Y101.311 E0.2260
G1 X109.556 Y101.028 E0.2511
G1 X110.127 Y100.764 E0.2762
G1 X110.707 Y100.521 E0.3014
G1 X111.295 Y100.297 E0.3265
G1 X111.890 Y100.094 E0.3516
G1 X112.493 Y99.911 E0.3767
G1 X113.101 Y99.749 E0.4018
G1 X113.714 Y99.608 E0.4269
G1 X114.332 Y99.489 E0.4521
G1 X114.951 Y99.391 E0.4771
G1 X115.657 Y99.306 E0.5054
G1 X116.203 Y99.258 E0.5273
G1 X116.833 Y99.225 E0.5525
G1 X117.460 Y99.212 E0.5776
G1 X118.169 Y99.225 E0.6058
G1 X118.797 Y99.258 E0.6309
G1 X119.343 Y99.306 E0.6528
G1 X120.049 Y99.391 E0.6812
G1 X120.668 Y99.489 E0.7062
G1 X121.286 Y99.608 E0.7313
G1 X121.899 Y99.749 E0.7564
G1 X122.507 Y99.911 E0.7816
G1 X123.110 Y100.094 E0.8067
G1 X123.705 Y100.297 E0.8318
G1 X124.293 Y100.521 E0.8569
G1 X124.873 Y100.764 E0.8820
G1 X125.444 Y101.028 E0.9071
G1 X126.007 Y101.311 E0.9323
G1 X126.558 Y101.613 E0.9574
G1 X127.100 Y101.934 E0.9825
G1 X127.630 Y102.274 E1.0076
G1 X128.147 Y102.631 E1.0327
G1 X128.652 Y103.006 E1.0578
G1 X129.145 Y103.399 E1.0829
G1 X129.623 Y103.807 E1.1080
G1 X130.087 Y104.233 E1.1332
G1 X130.536 Y104.673 E1.1583
G1 X130.969 Y105.130 E1.1834
G1 X131.387 Y105.600 E1.2085
G1 X131.788 Y106.085 E1.2336
G1 X132.172 Y106.583 E1.2587
G1 X132.539 Y107.095 E1.2838
G1 X132.888 Y107.618 E1.3090
G1 X133.219 Y108.153 E1.3341
G1 X133.531 Y108.700 E1.3592
G1 X133.824 Y109.256 E1.3843
G1 X134.097 Y109.821 E1.4093
G1 X134.383 Y110.472 E1.4377
G1 X134.586 Y110.981 E1.4596
G1 X134.800 Y111.573 E1.4847
G1 X135.017 Y112.247 E1.5130
G1 X135.187 Y112.851 E1.5380
G1 X135.337 Y113.464 E1.5632
G1 X135.449 Y114.000 E1.5851
G1 X135.572 Y114.700 E1.6134
G1 X135.658 Y115.322 E1.6385
G1 X135.722 Y115.948 E1.6636
G1 X135.764 Y116.576 E1.6887
G1 X135.785 Y117.204 E1.7138
G1 X135.785 Y117.833 E1.7389
G1 X135.762 Y118.462 E1.7640
G1 X135.719 Y119.090 E1.7892
G1 X135.653 Y119.716 E1.8143
G1 X135.566 Y120.339 E1.8394
G1 X135.458 Y120.959 E1.8645
G1 X135.328 Y121.575 E1.8896
G1 X135.177 Y122.186 E1.9147
G1 X135.006 Y122.791 E1.9398
G1 X134.813 Y123.390 E1.9649
G1 X134.601 Y123.982 E1.9901
G1 X134.367 Y124.567 E2.0152
G1 X134.114 Y125.143 E2.0403
G1 X133.841 Y125.710 E2.0654
G1 X133.549 Y126.267 E2.0905
G1 X133.238 Y126.814 E2.1156
G1 X132.908 Y127.350 E2.1408
G1 X132.560 Y127.874 E2.1659
G1 X132.195 Y128.386 E2.1910
G1 X131.812 Y128.885 E2.2161
G1 X131.411 Y129.371 E2.2412
G1 X130.995 Y129.842 E2.2663
G1 X130.562 Y130.299 E2.2914
G1 X130.115 Y130.740 E2.3165
G1 X129.591 Y131.220 E2.3448
G1 X129.175 Y131.576 E2.3667
G1 X128.684 Y131.969 E2.3918
G1 X128.115 Y132.392 E2.4201
G1 X127.598 Y132.747 E2.4451
G1 X127.066 Y133.086 E2.4703
G1 X126.594 Y133.366 E2.4922
G1 X125.971 Y133.707 E2.5206
G1 X125.410 Y133.989 E2.5456
G1 X124.838 Y134.251 E2.5707
G1 X124.258 Y134.493 E2.5958
G1 X123.669 Y134.716 E2.6209
G1 X123.073 Y134.918 E2.6461
G1 X122.471 Y135.099 E2.6712
G1 X121.862 Y135.260 E2.6963
G1 X121.249 Y135.400 E2.7214
G1 X120.631 Y135.518 E2.7465
G1 X120.009 Y135.615 E2.7716
G1 X119.384 Y135.691 E2.7967
G1 X118.758 Y135.745 E2.8219
G1 X118.129 Y135.777 E2.8470
G1 X117.500 Y135.788 E2.8721
G1 X116.871 Y135.777 E2.8972
G1 X116.242 Y135.745 E2.9223
G1 X115.616 Y135.691 E2.9474
G1 X114.991 Y135.615 E2.9725
G1 X114.369 Y135.518 E2.9977
G1 X113.751 Y135.400 E3.0228
G1 X113.138 Y135.260 E3.0479
G1 X112.529 Y135.099 E3.0730
G1 X111.927 Y134.918 E3.0981
G1 X111.331 Y134.716 E3.1232
G1 X110.742 Y134.493 E3.1483
G1 X110.162 Y134.251 E3.1735
G1 X109.590 Y133.989 E3.1986
G1 X109.027 Y133.706 E3.2237
G1 X108.476 Y133.406 E3.2487
G1 X107.865 Y133.044 E3.2771
G1 X107.404 Y132.748 E3.2990
G1 X106.885 Y132.392 E3.3241
G1 X106.316 Y131.969 E3.3523
G1 X105.826 Y131.577 E3.3774
G1 X105.348 Y131.166 E3.4026
G1 X104.944 Y130.796 E3.4245
G1 X104.437 Y130.298 E3.4528
G1 X104.005 Y129.842 E3.4778
G1 X103.589 Y129.371 E3.5030
G1 X103.188 Y128.885 E3.5281
G1 X102.805 Y128.386 E3.5532
G1 X102.439 Y127.874 E3.5783
G1 X102.091 Y127.350 E3.6034
G1 X101.762 Y126.814 E3.6285
G1 X101.451 Y126.267 E3.6537
G1 X101.159 Y125.710 E3.6788
G1 X100.886 Y125.143 E3.7039
G1 X100.633 Y124.567 E3.7290
G1 X100.400 Y123.982 E3.7541
G1 X100.187 Y123.390 E3.7792
G1 X99.994 Y122.791 E3.8043
G1 X99.823 Y122.186 E3.8294
G1 X99.672 Y121.575 E3.8546
G1 X99.542 Y120.959 E3.8797
G1 X99.434 Y120.339 E3.9048
G1 X99.347 Y119.716 E3.9299
G1 X99.281 Y119.090 E3.9550
G1 X99.238 Y118.462 E3.9801
G1 X99.215 Y117.833 E4.0052
G1 X99.215 Y117.204 E4.0304
G1 X99.236 Y116.576 E4.0555
G1 X99.278 Y115.948 E4.0806
G1 X99.342 Y115.322 E4.1057
G1 X99.428 Y114.698 E4.1308
G1 X99.535 Y114.080 E4.1558
G1 X99.682 Y113.385 E4.1842
G1 X99.813 Y112.853 E4.2061
G1 X99.983 Y112.247 E4.2312
G1 X100.200 Y111.573 E4.2595
G1 X100.413 Y110.982 E4.2845
G1 X100.648 Y110.397 E4.3097
G1 X100.876 Y109.880 E4.3323
G1 X100.897 Y109.832 E4.3343
G1 X101.176 Y109.256 E4.3599
G1 X101.469 Y108.700 E4.3850
G1 X101.781 Y108.153 E4.4101
