; G-Code generated by Simplify3D(R) Version 4.0.1
; Feb 8, 2023 at 11:41:24 AM
; Settings Summary
;   processName,Process1
;   applyToModels,Thin_Film
;   profileName,CR-20 Pro Printer Top Printing Plot (modified)
;   profileVersion,2022-12-05 15:30:11
;   baseProfile,Default
;   printMaterial,ABS
;   printQuality,High
;   printExtruders,
;   extruderName,Extruder 1
;   extruderToolheadNumber,0
;   extruderDiameter,0.4
;   extruderAutoWidth,1
;   extruderWidth,0.48
;   extrusionMultiplier,1
;   extruderUseRetract,1
;   extruderRetractionDistance,4
;   extruderExtraRestartDistance,-0.3
;   extruderRetractionZLift,0.2
;   extruderRetractionSpeed,2000
;   extruderUseCoasting,1
;   extruderCoastingDistance,1
;   extruderUseWipe,1
;   extruderWipeDistance,2.6
;   primaryExtruder,0
;   layerHeight,0.2
;   topSolidLayers,1
;   bottomSolidLayers,1
;   perimeterOutlines,3
;   printPerimetersInsideOut,1
;   startPointOption,2
;   startPointOriginX,0
;   startPointOriginY,0
;   sequentialIslands,1
;   spiralVaseMode,0
;   firstLayerHeightPercentage,100
;   firstLayerWidthPercentage,100
;   firstLayerUnderspeed,0.4
;   useRaft,0
;   raftExtruder,0
;   raftTopLayers,2
;   raftBaseLayers,0
;   raftOffset,5
;   raftSeparationDistance,0.29
;   raftTopInfill,100
;   aboveRaftSpeedMultiplier,0.3
;   useSkirt,0
;   skirtExtruder,0
;   skirtLayers,2
;   skirtOutlines,3
;   skirtOffset,3
;   usePrimePillar,0
;   primePillarExtruder,999
;   primePillarWidth,12
;   primePillarLocation,7
;   primePillarSpeedMultiplier,1
;   useOozeShield,0
;   oozeShieldExtruder,999
;   oozeShieldOffset,2
;   oozeShieldOutlines,1
;   oozeShieldSidewallShape,1
;   oozeShieldSidewallAngle,30
;   oozeShieldSpeedMultiplier,1
;   infillExtruder,0
;   internalInfillPattern,Rectilinear
;   externalInfillPattern,Concentric
;   infillPercentage,10
;   outlineOverlapPercentage,20
;   infillExtrusionWidthPercentage,100
;   minInfillLength,5
;   infillLayerInterval,1
;   internalInfillAngles,0,90
;   overlapInternalInfillAngles,0
;   externalInfillAngles,0,90
;   generateSupport,1
;   supportExtruder,0
;   supportInfillPercentage,100
;   supportExtraInflation,1
;   supportBaseLayers,2
;   denseSupportExtruder,0
;   denseSupportLayers,0
;   denseSupportInfillPercentage,70
;   supportLayerInterval,1
;   supportHorizontalPartOffset,0.5
;   supportUpperSeparationLayers,3
;   supportLowerSeparationLayers,3
;   supportType,0
;   supportGridSpacing,1
;   maxOverhangAngle,60
;   supportAngles,0
;   temperatureName,Extruder 1,Heated Bed
;   temperatureNumber,0,0
;   temperatureSetpointCount,1,1
;   temperatureSetpointLayers,1,1
;   temperatureSetpointTemperatures,245,80
;   temperatureStabilizeAtStartup,1,1
;   temperatureHeatedBed,0,1
;   temperatureRelayBetweenLayers,0,0
;   temperatureRelayBetweenLoops,0,0
;   fanLayers,1,1
;   fanSpeeds,0,50
;   blipFanToFullPower,0
;   adjustSpeedForCooling,1
;   minSpeedLayerTime,15
;   minCoolingSpeedSlowdown,20
;   increaseFanForCooling,0
;   minFanLayerTime,45
;   maxCoolingFanSpeed,100
;   increaseFanForBridging,1
;   bridgingFanSpeed,100
;   use5D,1
;   relativeEdistances,0
;   allowEaxisZeroing,1
;   independentExtruderAxes,0
;   includeM10123,0
;   stickySupport,1
;   applyToolheadOffsets,0
;   gcodeXoffset,0
;   gcodeYoffset,0
;   gcodeZoffset,0
;   overrideMachineDefinition,1
;   machineTypeOverride,0
;   strokeXoverride,235
;   strokeYoverride,235
;   strokeZoverride,250
;   originOffsetXoverride,0
;   originOffsetYoverride,0
;   originOffsetZoverride,0
;   homeXdirOverride,-1
;   homeYdirOverride,-1
;   homeZdirOverride,-1
;   flipXoverride,1
;   flipYoverride,-1
;   flipZoverride,1
;   toolheadOffsets,0,0|0,0|0,0|0,0|0,0|0,0
;   overrideFirmwareConfiguration,1
;   firmwareTypeOverride,RepRap (Marlin/Repetier/Sprinter)
;   GPXconfigOverride,r2
;   baudRateOverride,250000
;   overridePrinterModels,0
;   printerModelsOverride
;   startingGcode,G28 ,G29,G92 E0 ; Reset Extruder,M400 ; wait for moves to finish,
;   layerChangeGcode,G92 E0 ; Reset Extruder
;   retractionGcode,
;   toolChangeGcode,
;   endingGcode,M400 ; wait for moves to finish,M107; turn fan off,G92 E0,G1 E-4 F300  ; retract the filament a bit,G92 E0,M104 S0,M140 S0,G28 X0 Y0 ;move X/Y to min endstops,,
;   exportFileFormat,gcode
;   celebration,0
;   celebrationSong,Star Wars
;   postProcessing,
;   defaultSpeed,3000
;   outlineUnderspeed,0.8
;   solidInfillUnderspeed,0.8
;   supportUnderspeed,0.8
;   rapidXYspeed,3000
;   rapidZspeed,3000
;   minBridgingArea,50
;   bridgingExtraInflation,0.5
;   bridgingExtrusionMultiplier,0.85
;   bridgingSpeedMultiplier,0.25
;   useFixedBridgingAngle,0
;   fixedBridgingAngle,0
;   applyBridgingToPerimeters,0
;   filamentDiameters,1.75|1.75|1.75|1.75|1.75|1.75
;   filamentPricesPerKg,22.99|46|46|46|46|46
;   filamentDensities,1.25|1.25|1.25|1.25|1.25|1.25
;   useMinPrintHeight,0
;   minPrintHeight,30
;   useMaxPrintHeight,0
;   maxPrintHeight,0
;   useDiaphragm,0
;   diaphragmLayerInterval,20
;   robustSlicing,1
;   mergeAllIntoSolid,0
;   onlyRetractWhenCrossingOutline,1
;   retractBetweenLayers,0
;   useRetractionMinTravel,0
;   retractionMinTravel,3
;   retractWhileWiping,1
;   onlyWipeOutlines,0
;   avoidCrossingOutline,1
;   maxMovementDetourFactor,5
;   toolChangeRetractionDistance,12
;   toolChangeExtraRestartDistance,-0.5
;   toolChangeRetractionSpeed,400
;   externalThinWallType,0
;   internalThinWallType,0
;   thinWallAllowedOverlapPercentage,5
;   singleExtrusionMinLength,1
;   singleExtrusionMinPrintingWidthPercentage,50
;   singleExtrusionMaxPrintingWidthPercentage,200
;   singleExtrusionEndpointExtension,0.2
;   horizontalSizeCompensation,0
G90
M82
M106 S0
M140 S80
M190 S80
M104 S245 T0
M109 S245 T0
G28 
G29
G92 E0 ; Reset Extruder
M400 ; wait for moves to finish
G92 E0
G1 E-4.0000 F2000
G1 Z0.400 F3000
; process Process1
; layer 1, Z = 0.200
G92 E0 ; Reset Extruder
T0
; tool H0.200 W0.480
; inner perimeter
G1 X88.700 Y88.700 F3000
G1 Z0.200 F3000
G1 E-0.3000 F600
G92 E0
G1 X146.300 Y88.700 E2.2989 F1080
G1 X146.300 Y146.300 E4.5979
G1 X88.700 Y146.300 E6.8968
G1 X88.700 Y89.700 E9.1558
G1 X88.700 Y88.700 F1080
G1 X94.700 Y88.700 F3000
G1 X88.220 Y88.220 F3000
G92 E0
G1 X146.780 Y88.220 E2.3373 F1080
G1 X146.780 Y146.780 E4.6745
G1 X88.220 Y146.780 E7.0118
G1 X88.220 Y89.220 E9.3091
G1 X88.220 Y88.220 F1080
G1 X94.220 Y88.220 F3000
; outer perimeter
G1 X87.740 Y87.740 F3000
G92 E0
G1 X147.260 Y87.740 E2.3756 F960
G1 X147.260 Y147.260 E4.7511
G1 X87.740 Y147.260 E7.1267
G1 X87.740 Y88.740 E9.4624
G1 X87.740 Y87.740 F960
G1 X93.740 Y87.740 F3000
; solid layer
G1 X90.524 Y90.524 F3000
G92 E0
G1 X144.476 Y90.524 E2.1533 F960
G1 X144.476 Y144.476 E4.3067
G1 X90.524 Y144.476 E6.4600
G1 X90.524 Y91.524 E8.5735
G1 X90.524 Y90.524 F960
G1 X96.524 Y90.524 F3000
G1 X93.404 Y93.404 F3000
G92 E0
G1 X141.596 Y93.404 E1.9234 F960
G1 X141.596 Y141.596 E3.8469
G1 X93.404 Y141.596 E5.7703
G1 X93.404 Y94.404 E7.6539
G1 X93.404 Y93.404 F960
G1 X99.404 Y93.404 F3000
G1 X96.284 Y96.284 F3000
G92 E0
G1 X138.716 Y96.284 E1.6936 F960
G1 X138.716 Y138.716 E3.3871
G1 X96.284 Y138.716 E5.0807
G1 X96.284 Y97.284 E6.7343
G1 X96.284 Y96.284 F960
G1 X102.284 Y96.284 F3000
G1 X99.164 Y99.164 F3000
G92 E0
G1 X135.836 Y99.164 E1.4637 F960
G1 X135.836 Y135.836 E2.9273
G1 X99.164 Y135.836 E4.3910
G1 X99.164 Y100.164 E5.8147
G1 X99.164 Y99.164 F960
G1 X105.164 Y99.164 F3000
G1 X102.044 Y102.044 F3000
G92 E0
G1 X132.956 Y102.044 E1.2338 F960
G1 X132.956 Y132.956 E2.4675
G1 X102.044 Y132.956 E3.7013
G1 X102.044 Y103.044 E4.8951
G1 X102.044 Y102.044 F960
G1 X108.044 Y102.044 F3000
G1 X104.924 Y104.924 F3000
G92 E0
G1 X130.076 Y104.924 E1.0039 F960
G1 X130.076 Y130.076 E2.0077
G1 X104.924 Y130.076 E3.0116
G1 X104.924 Y105.924 E3.9756
G1 X104.924 Y104.924 F960
G1 X110.924 Y104.924 F3000
G1 X107.804 Y107.804 F3000
G92 E0
G1 X127.196 Y107.804 E0.7740 F960
G1 X127.196 Y127.196 E1.5479
G1 X107.804 Y127.196 E2.3219
G1 X107.804 Y108.804 E3.0560
G1 X107.804 Y107.804 F960
G1 X113.804 Y107.804 F3000
G1 X110.684 Y110.684 F3000
G92 E0
G1 X124.316 Y110.684 E0.5441 F960
G1 X124.316 Y124.316 E1.0882
G1 X110.684 Y124.316 E1.6322
G1 X110.684 Y111.684 E2.1364
G1 X110.684 Y110.684 F960
G1 X116.684 Y110.684 F3000
G1 X113.564 Y113.564 F3000
G92 E0
G1 X121.436 Y113.564 E0.3142 F960
G1 X121.436 Y121.436 E0.6284
G1 X113.564 Y121.436 E0.9426
G1 X113.564 Y114.564 E1.2168
G1 X113.564 Y113.564 F960
G1 X119.564 Y113.564 F3000
G1 X120.476 Y114.524 F3000
G92 E0
G1 X120.476 Y120.476 E0.2376 F960
G1 X114.524 Y120.476 E0.4751
G1 X114.524 Y114.524 E0.7127
G1 X119.476 Y114.524 E0.9103
G1 X120.476 Y114.524 F960
G1 X120.476 Y120.476 F3000
G1 X120.428 Y120.476 F3000
G1 X119.996 Y119.996 F3000
G92 E0
G1 X115.004 Y119.996 E0.1992 F960
G1 X115.004 Y115.004 E0.3985
G1 X119.996 Y115.004 E0.5977
G1 X119.996 Y118.996 E0.7570
G1 X119.996 Y119.996 F960
G1 X115.004 Y119.996 F3000
G1 X115.004 Y118.988 F3000
G1 X115.484 Y119.516 F3000
G92 E0
G1 X115.484 Y115.484 E0.1609 F960
G1 X119.516 Y115.484 E0.3218
G1 X119.516 Y119.516 E0.4828
G1 X116.484 Y119.516 E0.6038
G1 X115.484 Y119.516 F960
G1 X115.484 Y115.484 F3000
G1 X117.452 Y115.484 F3000
G1 X116.444 Y116.444 F3000
G92 E0
G1 X118.556 Y116.444 E0.0843 F960
G1 X118.556 Y118.556 E0.1686
G1 X116.444 Y118.556 E0.2529
G1 X116.444 Y117.444 E0.2973
G1 X116.444 Y116.444 F960
G1 X118.556 Y116.444 F3000
G1 X118.556 Y118.556 F3000
G1 X116.780 Y118.556 F3000
G1 X116.924 Y118.076 F3000
G92 E0
G1 X116.924 Y116.924 E0.0460 F960
G1 X118.076 Y116.924 E0.0920
G1 X118.076 Y118.076 E0.1379
G1 X117.924 Y118.076 E0.1440
G1 X116.924 Y118.076 F960
G1 X116.924 Y116.924 F3000
G1 X118.076 Y116.924 F3000
G1 X118.076 Y118.076 F3000
G1 X116.924 Y118.076 F3000
G1 X115.964 Y119.036 F3000
G92 E0
G1 X115.964 Y115.964 E0.1226 F960
G1 X119.036 Y115.964 E0.2452
G1 X119.036 Y119.036 E0.3678
G1 X116.964 Y119.036 E0.4505
G1 X115.964 Y119.036 F960
G1 X115.964 Y115.964 F3000
G1 X118.892 Y115.964 F3000
G1 X120.956 Y114.044 F3000
G92 E0
G1 X120.956 Y120.956 E0.2759 F960
G1 X114.044 Y120.956 E0.5517
G1 X114.044 Y114.044 E0.8276
G1 X119.956 Y114.044 E1.0636
G1 X120.956 Y114.044 F960
G1 X120.956 Y120.044 F3000
G1 X121.916 Y121.916 F3000
G92 E0
G1 X113.084 Y121.916 E0.3525 F960
G1 X113.084 Y113.084 E0.7050
G1 X121.916 Y113.084 E1.0575
G1 X121.916 Y120.916 E1.3701
G1 X121.916 Y121.916 F960
G1 X115.916 Y121.916 F3000
G1 X112.604 Y122.396 F3000
G92 E0
G1 X112.604 Y112.604 E0.3908 F960
G1 X122.396 Y112.604 E0.7816
G1 X122.396 Y122.396 E1.1724
G1 X113.604 Y122.396 E1.5234
G1 X112.604 Y122.396 F960
G1 X112.604 Y116.396 F3000
G1 X112.124 Y112.124 F3000
G92 E0
G1 X122.876 Y112.124 E0.4291 F960
G1 X122.876 Y122.876 E0.8583
G1 X112.124 Y122.876 E1.2874
G1 X112.124 Y113.124 E1.6766
G1 X112.124 Y112.124 F960
G1 X118.124 Y112.124 F3000
G1 X123.356 Y111.644 F3000
G92 E0
G1 X123.356 Y123.356 E0.4674 F960
G1 X111.644 Y123.356 E0.9349
G1 X111.644 Y111.644 E1.4023
G1 X122.356 Y111.644 E1.8299
G1 X123.356 Y111.644 F960
G1 X123.356 Y117.644 F3000
G1 X123.836 Y123.836 F3000
G92 E0
G1 X111.164 Y123.836 E0.5058 F960
G1 X111.164 Y111.164 E1.0115
G1 X123.836 Y111.164 E1.5173
G1 X123.836 Y122.836 E1.9831
G1 X123.836 Y123.836 F960
G1 X117.836 Y123.836 F3000
G1 X124.796 Y124.796 F3000
G92 E0
G1 X110.204 Y124.796 E0.5824 F960
G1 X110.204 Y110.204 E1.1648
G1 X124.796 Y110.204 E1.7472
G1 X124.796 Y123.796 E2.2897
G1 X124.796 Y124.796 F960
G1 X118.796 Y124.796 F3000
G1 X125.276 Y125.276 F3000
G92 E0
G1 X109.724 Y125.276 E0.6207 F960
G1 X109.724 Y109.724 E1.2414
G1 X125.276 Y109.724 E1.8621
G1 X125.276 Y124.276 E2.4429
G1 X125.276 Y125.276 F960
G1 X119.276 Y125.276 F3000
G1 X125.756 Y125.756 F3000
G92 E0
G1 X109.244 Y125.756 E0.6590 F960
G1 X109.244 Y109.244 E1.3181
G1 X125.756 Y109.244 E1.9771
G1 X125.756 Y124.756 E2.5962
G1 X125.756 Y125.756 F960
G1 X119.756 Y125.756 F3000
G1 X126.236 Y126.236 F3000
G92 E0
G1 X108.764 Y126.236 E0.6973 F960
G1 X108.764 Y108.764 E1.3947
G1 X126.236 Y108.764 E2.0920
G1 X126.236 Y125.236 E2.7495
G1 X126.236 Y126.236 F960
G1 X120.236 Y126.236 F3000
G1 X126.716 Y126.716 F3000
G92 E0
G1 X108.284 Y126.716 E0.7357 F960
G1 X108.284 Y108.284 E1.4713
G1 X126.716 Y108.284 E2.2070
G1 X126.716 Y125.716 E2.9027
G1 X126.716 Y126.716 F960
G1 X120.716 Y126.716 F3000
G1 X127.676 Y127.676 F3000
G92 E0
G1 X107.324 Y127.676 E0.8123 F960
G1 X107.324 Y107.324 E1.6246
G1 X127.676 Y107.324 E2.4369
G1 X127.676 Y126.676 E3.2092
G1 X127.676 Y127.676 F960
G1 X121.676 Y127.676 F3000
G1 X128.156 Y128.156 F3000
G92 E0
G1 X106.844 Y128.156 E0.8506 F960
G1 X106.844 Y106.844 E1.7012
G1 X128.156 Y106.844 E2.5518
G1 X128.156 Y127.156 E3.3625
G1 X128.156 Y128.156 F960
G1 X122.156 Y128.156 F3000
G1 X128.636 Y128.636 F3000
G92 E0
G1 X106.364 Y128.636 E0.8889 F960
G1 X106.364 Y106.364 E1.7778
G1 X128.636 Y106.364 E2.6668
G1 X128.636 Y127.636 E3.5158
G1 X128.636 Y128.636 F960
G1 X122.636 Y128.636 F3000
G1 X129.116 Y129.116 F3000
G92 E0
G1 X105.884 Y129.116 E0.9272 F960
G1 X105.884 Y105.884 E1.8545
G1 X129.116 Y105.884 E2.7817
G1 X129.116 Y128.116 E3.6690
G1 X129.116 Y129.116 F960
G1 X123.116 Y129.116 F3000
G1 X129.596 Y129.596 F3000
G92 E0
G1 X105.404 Y129.596 E0.9656 F960
G1 X105.404 Y105.404 E1.9311
G1 X129.596 Y105.404 E2.8967
G1 X129.596 Y128.596 E3.8223
G1 X129.596 Y129.596 F960
G1 X123.596 Y129.596 F3000
G1 X130.556 Y130.556 F3000
G92 E0
G1 X104.444 Y130.556 E1.0422 F960
G1 X104.444 Y104.444 E2.0844
G1 X130.556 Y104.444 E3.1265
G1 X130.556 Y129.556 E4.1288
G1 X130.556 Y130.556 F960
G1 X124.556 Y130.556 F3000
G1 X131.036 Y131.036 F3000
G92 E0
G1 X103.964 Y131.036 E1.0805 F960
G1 X103.964 Y103.964 E2.1610
G1 X131.036 Y103.964 E3.2415
G1 X131.036 Y130.036 E4.2821
G1 X131.036 Y131.036 F960
G1 X125.036 Y131.036 F3000
G1 X131.516 Y131.516 F3000
G92 E0
G1 X103.484 Y131.516 E1.1188 F960
G1 X103.484 Y103.484 E2.2376
G1 X131.516 Y103.484 E3.3564
G1 X131.516 Y130.516 E4.4353
G1 X131.516 Y131.516 F960
G1 X125.516 Y131.516 F3000
G1 X131.996 Y131.996 F3000
G92 E0
G1 X103.004 Y131.996 E1.1571 F960
G1 X103.004 Y103.004 E2.3143
G1 X131.996 Y103.004 E3.4714
G1 X131.996 Y130.996 E4.5886
G1 X131.996 Y131.996 F960
G1 X125.996 Y131.996 F3000
G1 X132.476 Y132.476 F3000
G92 E0
G1 X102.524 Y132.476 E1.1954 F960
G1 X102.524 Y102.524 E2.3909
G1 X132.476 Y102.524 E3.5863
G1 X132.476 Y131.476 E4.7419
G1 X132.476 Y132.476 F960
G1 X126.476 Y132.476 F3000
G1 X133.436 Y133.436 F3000
G92 E0
G1 X101.564 Y133.436 E1.2721 F960
G1 X101.564 Y101.564 E2.5442
G1 X133.436 Y101.564 E3.8162
G1 X133.436 Y132.436 E5.0484
G1 X133.436 Y133.436 F960
G1 X127.436 Y133.436 F3000
G1 X133.916 Y133.916 F3000
G92 E0
G1 X101.084 Y133.916 E1.3104 F960
G1 X101.084 Y101.084 E2.6208
G1 X133.916 Y101.084 E3.9312
G1 X133.916 Y132.916 E5.2017
G1 X133.916 Y133.916 F960
G1 X127.916 Y133.916 F3000
G1 X134.396 Y134.396 F3000
G92 E0
G1 X100.604 Y134.396 E1.3487 F960
G1 X100.604 Y100.604 E2.6974
G1 X134.396 Y100.604 E4.0461
G1 X134.396 Y133.396 E5.3549
G1 X134.396 Y134.396 F960
G1 X128.396 Y134.396 F3000
G1 X134.876 Y134.876 F3000
G92 E0
G1 X100.124 Y134.876 E1.3870 F960
G1 X100.124 Y100.124 E2.7741
G1 X134.876 Y100.124 E4.1611
G1 X134.876 Y133.876 E5.5082
G1 X134.876 Y134.876 F960
G1 X128.876 Y134.876 F3000
G1 X135.356 Y135.356 F3000
G92 E0
G1 X99.644 Y135.356 E1.4253 F960
G1 X99.644 Y99.644 E2.8507
G1 X135.356 Y99.644 E4.2760
G1 X135.356 Y134.356 E5.6615
G1 X135.356 Y135.356 F960
G1 X129.356 Y135.356 F3000
G1 X136.316 Y136.316 F3000
G92 E0
G1 X98.684 Y136.316 E1.5020 F960
G1 X98.684 Y98.684 E3.0039
G1 X136.316 Y98.684 E4.5059
G1 X136.316 Y135.316 E5.9680
G1 X136.316 Y136.316 F960
G1 X130.316 Y136.316 F3000
G1 X136.796 Y136.796 F3000
G92 E0
G1 X98.204 Y136.796 E1.5403 F960
G1 X98.204 Y98.204 E3.0806
G1 X136.796 Y98.204 E4.6209
G1 X136.796 Y135.796 E6.1212
G1 X136.796 Y136.796 F960
G1 X130.796 Y136.796 F3000
G1 X137.276 Y137.276 F3000
G92 E0
G1 X97.724 Y137.276 E1.5786 F960
G1 X97.724 Y97.724 E3.1572
G1 X137.276 Y97.724 E4.7358
G1 X137.276 Y136.276 E6.2745
G1 X137.276 Y137.276 F960
G1 X131.276 Y137.276 F3000
G1 X137.756 Y137.756 F3000
G92 E0
G1 X97.244 Y137.756 E1.6169 F960
